X:1
T:Pinsesalme "Velsignede Morgen"
T:Pinsesalme
T:Peer Gynt, scene 10
T:Edvard Grieg
C:Edvard Grieg
%%score [ 1 2 3 4 ]
L:1/8
Q:1/4=60
M:4/4
K:D
V:1 treble nm="Soprano"
V:2 treble nm="Alto"
V:3 treble-8 nm="Tenor"
V:4 bass nm="Bass"
V:1
 A4 | A4 G2 F2 | F4 D2 D2 | G4 (F3/2G/4F/4) E2 | E4 D4- | D4 E4 | F4 D2"^cresc." F2 | A4 B2 (3cBA | %8
w: Vel-|sig- ne- de|Mor- gen, da|Guds- ri- * * gets|Tun- ger|_ traf|Jor- den som|flam- men- de _ _|
 A8- | A4!f! A4 | d4 (c3/2d/4c/4) B2 | B4 A2 F2 |"^dim." B4 A3/2B/4A/4 G2 | G4 !fermata!F2 D2 | %14
w: Stål.|_ Fra|Jor- den _ _ mod|Bor- gen nu|Ar- vin- * * gen|sjun- ger på|
 G4 (F3/2G/4F/4) E2 |!>(! E6 D2!>)! |!pp! D8- | D4 |] %18
w: Guds- ri- * * gets|Tun- ge-|mål.|_|
V:2
 A4 | D4 C2 C2 | D4 D2 D2 | C4 D2 D2 | (D2 C2) D4- | D4 (A,2 C2) | C4 B,2"^cresc." D2 | E4 E2 ^G2 | %8
w: Vel-|sig- ne- de|Mor- gen, da|Guds- ri- gets|Tun- * ger|_ traf _|Jor- den som|flam- men- de|
 E8- | E4!f! A4 | A4 A2 F2 | F4 F2 F2 |"^dim." F4 F2 F2 | (E2 D2) !fermata!C2 B,2 | C4 D2 D2 | %15
w: Stål.|_ Fra|Jor- den mod|Bor- gen nu|Ar- vin- gen|sjun- * ger på|Guds- ri- gets|
!>(! (D4 C2) A,2!>)! |!pp! A,8- | A,4 |] %18
w: Tun- * ge-|mål.|_|
V:3
 A4 | A4 A2 A2 | A4 B2 A2 | G4 A2 B2 | A4 F4- | F4 (A2 G2) | F4 F2"^cresc." B2 | A4 ^G2 e2 | c8- | %9
w: Vel-|sig- ne- de|Mor- gen, da|Guds- ri- gets|Tun- ger|_ traf _|Jor- den som|flam- men- de|Stål.|
 c4!f! A4 | f4 e2 d2 | d4 c2 A2 |"^dim." d4 c2 B2 | B4 !fermata!^A2 B2 | G4 =A2 B2 | %15
w: _ Fra|Jor- den mod|Bor- gen nu|Ar- vin- gen|sjun- ger på|Guds- ri- gets|
!>(! (E4 G2) G2!>)! |!pp! F8- | F4 |] %18
w: Tun- * ge-|mål.|_|
V:4
 A,4 | F,4 E,2 E,2 | D,4 G,2 F,2 | E,4 D,2 G,,2 | A,,4 B,,4- | B,,4 (C,2 B,,2) | %6
w: Vel-|sig- ne- de|Mor- gen, da|Guds- ri- gets|Tun- ger|_ traf _|
 A,,4 B,,2"^cresc." B,,2 | C,4 E,2 E,2 | A,8- | A,4!f! A,4 | (F,2 G,2) A,2 A,2 | %11
w: Jor- den som|flam- men- de|Stål.|_ Fra|Jor- * den mod|
 (D,2 E,2) F,2 F,2 |"^dim." (B,,2 C,2) D,2 D,2 | E,4 !fermata!F,2 G,2 | E,4 D,2 G,,2 | %15
w: Bor- * gen nu|Ar- * vin- gen|sjun- ger på|Guds- ri- gets|
!>(! A,,6 A,,2!>)! |!pp! D,8- | D,4 |] %18
w: Tun- ge-|mål.|_|

